images/feature-3.svg

<svg width="78" height="78" viewBox="0 0 78 78" fill="none" xmlns="http://www.w3.org/2000/svg">
<path d="M68.6377 51.8625C66.4502 49.6875 65.2502 46.7875 65.2502 43.7V21.8625C65.2502 9.9375 55.5627 0.25 43.6377 0.25C42.0877 0.25 40.5252 0.425 39.0002 0.75C37.4752 0.425 35.9127 0.25 34.3627 0.25C22.4377 0.25 12.7502 9.9375 12.7502 21.8625V43.7C12.7502 46.7875 11.5502 49.6875 9.3627 51.8625L8.1377 53.0875L9.6877 53.8625C14.7752 56.4125 20.4627 57.75 26.1377 57.75H29.0002V54.2812H29.0389C24.3889 51.615 21.5002 46.6738 21.5002 41.2875V33.7875C21.5002 33.625 21.5127 33.475 21.5502 33.325L21.5377 33.35C20.0252 32.5 19.0002 30.8625 19.0002 29C19.0002 26.2375 21.2377 24 24.0002 24V23.925C24.0002 20.1375 26.1377 16.675 29.5252 14.9875L31.5002 14C33.1127 17.225 35.8502 19.7375 39.1877 21.075L40.2502 21.5L41.5002 14L45.9627 14.7375C47.9377 15.075 49.7627 16.0125 51.1752 17.425C52.9877 19.2375 54.0002 21.6875 54.0002 24.2375V24C56.7627 24 59.0002 26.2375 59.0002 29C59.0002 30.8625 57.9752 32.5 56.4627 33.35L56.4502 33.325C56.4877 33.475 56.5002 33.625 56.5002 33.7875V41.2875C56.5002 46.6738 53.6114 51.615 48.9614 54.2812H49.0002V57.75H51.8627C57.5377 57.75 63.2252 56.4125 68.3127 53.8625L69.8627 53.0875L68.6377 51.8625Z" fill="#FF6E40"/>
<path d="M41.5003 38.7049C41.0241 39.6574 40.0666 40.2499 39.0003 40.2499C37.9341 40.2499 36.9766 39.6574 36.5003 38.7049L36.3691 38.4412L34.1328 39.5599L34.2641 39.8237C35.1666 41.6287 36.9816 42.7499 39.0003 42.7499C41.0191 42.7499 42.8341 41.6287 43.7366 39.8224L43.8678 39.5587L41.6316 38.4399L41.5003 38.7049Z" fill="#EFE7E2"/>
<path d="M65.655 62.0075L50.25 59.2075V54.9812C54.9038 52.0087 57.75 46.8688 57.75 41.29V33.9975C59.3087 32.825 60.25 30.975 60.25 29C60.25 25.9488 58.05 23.4113 55.155 22.8663C54.8562 20.4813 53.7912 18.2725 52.065 16.5475C50.4525 14.935 48.4125 13.885 46.1637 13.51L40.4738 12.56L39.275 19.7562C36.6025 18.5912 34.3987 16.5887 32.9637 14.0587L33.5563 13.17C35.8188 9.77625 39.605 7.75 43.685 7.75C46.0963 7.75 48.4313 8.45625 50.4388 9.795L50.8062 10.04L52.1925 7.96L51.825 7.715C49.4062 6.1025 46.5913 5.25 43.685 5.25C38.7675 5.25 34.2038 7.6925 31.4738 11.785L30.6438 13.0313L28.9688 13.8688C25.4538 15.625 23.1825 19.015 22.8238 22.87C19.9387 23.4213 17.75 25.9563 17.75 29C17.75 30.9762 18.6913 32.8262 20.25 33.9975V41.29C20.25 46.8688 23.0962 52.0087 27.75 54.9812V59.2075L12.345 62.0075C5.33625 63.2825 0.25 69.3775 0.25 76.5V77.75H77.75V76.5C77.75 69.3775 72.6638 63.2825 65.655 62.0075V62.0075ZM27.75 45.685C28.5225 46.4262 29.3525 47.1 30.25 47.6725V53.5412L29.9812 53.3962C29.1725 52.96 28.4412 52.43 27.75 51.8575V45.685ZM32.75 48.9625C33.5612 49.3025 34.3913 49.6013 35.25 49.8063V56.2337L32.75 54.8875V48.9625ZM37.75 50.1763C38.1663 50.2088 38.58 50.25 39 50.25C39.42 50.25 39.8337 50.2088 40.25 50.1763V57.5025C39.4425 57.7887 38.5562 57.7887 37.75 57.5025V50.1763ZM42.75 49.8063C43.6087 49.6013 44.4388 49.3025 45.25 48.9625V54.8875L42.75 56.2337V49.8063ZM47.75 53.5412V47.6725C48.6475 47.1 49.4775 46.4262 50.25 45.685V51.8575C49.5588 52.43 48.8275 52.9612 48.0188 53.3962L47.75 53.5412ZM50 42.2513C47.4175 45.6938 43.305 47.75 39 47.75C34.695 47.75 30.5838 45.6938 28 42.2513C27.99 42.2375 27.9813 42.2225 27.97 42.2088L29.53 38.6975C30.46 36.6025 32.5425 35.25 34.8337 35.25C35.73 35.25 36.6287 35.4625 37.43 35.8625L39 36.6475L40.57 35.8625C41.3713 35.4625 42.2688 35.25 43.1663 35.25C45.4575 35.25 47.54 36.6025 48.47 38.6975L50.03 42.2088C50.02 42.2225 50.0112 42.2363 50 42.2513V42.2513ZM36.0575 59.5088C36.96 59.9938 37.9775 60.25 39 60.25C40.0225 60.25 41.04 59.9938 41.9425 59.5088L47.75 56.3825V59.625L39 66.1875L30.25 59.625V56.3825L36.0575 59.5088ZM37.0163 67.825L29.7488 74.1837L26.9137 61.9L28.6863 61.5775L37.0163 67.825ZM39 69.4112L45.6725 75.25H32.3275L39 69.4112ZM40.9838 67.825L49.3137 61.5775L51.0862 61.9L48.2513 74.1837L40.9838 67.825ZM55.25 41.29C55.25 44.1625 54.3337 46.88 52.75 49.1475V42.6562C54.3687 40.0775 55.25 37.05 55.25 34V41.29ZM57.75 29C57.75 29.8888 57.4087 30.7175 56.8562 31.3825C56.7862 31.3 56.7287 31.21 56.6512 31.1338L55.25 29.7325V25.48C56.7013 25.9975 57.75 27.3725 57.75 29V29ZM25.25 23.93C25.25 20.5938 27.1025 17.595 30.0875 16.1037L30.985 15.655C32.7737 18.6263 35.4838 20.94 38.7263 22.2375L41.2275 23.2375L42.5275 15.44L45.7525 15.9775C47.4838 16.265 49.0562 17.075 50.2975 18.3163C51.8787 19.8963 52.75 21.9987 52.75 24.2362V34C52.75 35.9038 52.34 37.7937 51.5775 39.5325L50.755 37.6812C49.4225 34.6862 46.445 32.75 43.1663 32.75C41.8838 32.75 40.5987 33.0525 39.4525 33.6263L39 33.8525L38.5487 33.6263C37.4012 33.0525 36.1175 32.75 34.8337 32.75C31.555 32.75 28.5763 34.6862 27.245 37.6812L26.4225 39.5325C25.66 37.7937 25.25 35.9038 25.25 34V23.93ZM22.75 25.48V29.7325L21.3487 31.1338C21.2712 31.2113 21.2138 31.3 21.1438 31.3825C20.5913 30.7175 20.25 29.8888 20.25 29C20.25 27.3725 21.2987 25.9975 22.75 25.48V25.48ZM22.75 41.29V34C22.75 37.0512 23.6313 40.0775 25.25 42.6562V49.1475C23.6663 46.88 22.75 44.1625 22.75 41.29V41.29ZM12.7925 64.4663L24.4513 62.3462L27.4288 75.25H2.81375C3.36 69.885 7.3875 65.45 12.7925 64.4663ZM50.5712 75.25L53.5487 62.3462L65.2075 64.4663C70.6112 65.45 74.64 69.885 75.1863 75.25H50.5712Z" fill="#EFE7E2"/>
<path d="M31.5 26.5C32.1887 26.5 32.75 27.06 32.75 27.75H35.25C35.25 25.6825 33.5675 24 31.5 24C29.4325 24 27.75 25.6825 27.75 27.75H30.25C30.25 27.06 30.8113 26.5 31.5 26.5Z" fill="#EFE7E2"/>
<path d="M46.5 26.5C47.1887 26.5 47.75 27.06 47.75 27.75H50.25C50.25 25.6825 48.5675 24 46.5 24C44.4325 24 42.75 25.6825 42.75 27.75H45.25C45.25 27.06 45.8113 26.5 46.5 26.5Z" fill="#EFE7E2"/>
</svg>

<svg width="78" height="78" fill="none" xmlns="http://www.w3.org/2000/svg"><path d="M68.638 51.862A11.428 11.428 0 0165.25 43.7V21.862C65.25 9.939 55.563.25 43.638.25c-1.55 0-3.113.175-4.638.5a22.32 22.32 0 00-4.637-.5C22.438.25 12.75 9.938 12.75 21.863V43.7c0 3.087-1.2 5.987-3.387 8.162l-1.225 1.225 1.55.775a36.886 36.886 0 0016.45 3.888H29v-3.469h.039A14.974 14.974 0 0121.5 41.288v-7.5a1.9 1.9 0 01.05-.463l-.012.025A4.999 4.999 0 0124 24v-.075a9.98 9.98 0 015.525-8.938L31.5 14a14.709 14.709 0 007.688 7.075l1.062.425L41.5 14l4.463.738a9.677 9.677 0 015.212 2.687A9.632 9.632 0 0154 24.238V24a4.999 4.999 0 012.463 9.35l-.013-.025c.038.15.05.3.05.462v7.5a14.974 14.974 0 01-7.539 12.994h.04v3.469h2.862a36.886 36.886 0 0016.45-3.888l1.55-.775-1.225-1.225z" fill="#FF6E40"/><path d="M41.5 38.705A2.78 2.78 0 0139 40.25a2.78 2.78 0 01-2.5-1.545l-.13-.264-2.237 1.119.131.264A5.266 5.266 0 0039 42.75a5.265 5.265 0 004.737-2.928l.13-.263-2.235-1.12-.132.266z" fill="#EFE7E2"/><path d="M65.655 62.008l-15.405-2.8V54.98a16.23 16.23 0 007.5-13.691v-7.292A6.266 6.266 0 0060.25 29c0-3.051-2.2-5.589-5.095-6.134a10.784 10.784 0 00-3.09-6.319 10.813 10.813 0 00-5.901-3.037l-5.69-.95-1.199 7.196a13.425 13.425 0 01-6.311-5.697l.592-.889a12.148 12.148 0 0110.129-5.42c2.411 0 4.746.706 6.754 2.045l.367.245 1.387-2.08-.368-.245a14.63 14.63 0 00-8.14-2.465 14.649 14.649 0 00-12.211 6.535l-.83 1.246-1.675.838c-3.515 1.756-5.787 5.146-6.145 9.001-2.885.551-5.074 3.086-5.074 6.13 0 1.976.941 3.826 2.5 4.998v7.292a16.23 16.23 0 007.5 13.691v4.227l-15.405 2.8A14.724 14.724 0 00.25 76.5v1.25h77.5V76.5a14.724 14.724 0 00-12.095-14.492zM27.75 45.684a16.242 16.242 0 002.5 1.987v5.87l-.269-.146c-.809-.436-1.54-.966-2.231-1.538v-6.173zm5 3.277c.811.34 1.641.64 2.5.844v6.428l-2.5-1.346v-5.925zm5 1.214c.416.033.83.074 1.25.074.42 0 .834-.041 1.25-.074v7.326a3.747 3.747 0 01-2.5 0v-7.326zm5-.37a16.244 16.244 0 002.5-.843v5.925l-2.5 1.346v-6.428zm5 3.735v-5.868a16.242 16.242 0 002.5-1.988v6.172c-.691.573-1.422 1.104-2.231 1.54l-.269.144zM50 42.251a13.818 13.818 0 01-11 5.499 13.82 13.82 0 01-11-5.499c-.01-.014-.019-.029-.03-.042l1.56-3.512a5.807 5.807 0 017.9-2.835l1.57.785 1.57-.785a5.807 5.807 0 017.9 2.835l1.56 3.512-.03.042zM36.057 59.51c.903.485 1.92.741 2.943.741 1.023 0 2.04-.256 2.943-.741l5.807-3.127v3.243L39 66.188l-8.75-6.563v-3.242l5.807 3.126zm.96 8.316l-7.268 6.359L26.914 61.9l1.772-.322 8.33 6.247zM39 69.411l6.672 5.839H32.328L39 69.411zm1.984-1.586l8.33-6.248 1.772.323-2.835 12.284-7.267-6.359zM55.25 41.29c0 2.873-.916 5.59-2.5 7.858v-6.492A16.367 16.367 0 0055.25 34v7.29zM57.75 29c0 .889-.341 1.718-.894 2.383-.07-.083-.127-.173-.205-.25l-1.401-1.4V25.48c1.451.517 2.5 1.892 2.5 3.52zm-32.5-5.07a8.7 8.7 0 014.837-7.826l.898-.449a15.941 15.941 0 007.741 6.583l2.502 1 1.3-7.798 3.224.537a8.323 8.323 0 014.545 2.34 8.314 8.314 0 012.453 5.92V34c0 1.904-.41 3.794-1.172 5.532l-.823-1.85a8.313 8.313 0 00-7.589-4.932 8.34 8.34 0 00-3.713.876l-.453.227-.451-.227a8.312 8.312 0 00-11.304 4.055l-.823 1.852A13.812 13.812 0 0125.25 34V23.93zm-2.5 1.55v4.253l-1.401 1.4c-.078.078-.135.167-.205.25-.553-.665-.894-1.494-.894-2.383 0-1.628 1.049-3.003 2.5-3.52zm0 15.81V34c0 3.051.881 6.078 2.5 8.656v6.492c-1.584-2.268-2.5-4.986-2.5-7.858zm-9.957 23.176l11.658-2.12L27.43 75.25H2.814a12.226 12.226 0 019.979-10.784zM50.57 75.25l2.978-12.904 11.658 2.12a12.227 12.227 0 019.98 10.784H50.57z" fill="#EFE7E2"/><path d="M31.5 26.5c.689 0 1.25.56 1.25 1.25h2.5A3.755 3.755 0 0031.5 24a3.755 3.755 0 00-3.75 3.75h2.5c0-.69.561-1.25 1.25-1.25zm15 0c.689 0 1.25.56 1.25 1.25h2.5A3.755 3.755 0 0046.5 24a3.755 3.755 0 00-3.75 3.75h2.5c0-.69.561-1.25 1.25-1.25z" fill="#EFE7E2"/></svg>
